images/quality-icon.svg

<svg width="58" height="58" viewBox="0 0 58 58" fill="none" xmlns="http://www.w3.org/2000/svg">
<g filter="url(#filter0_d)">
<circle cx="29" cy="25" r="25" fill="#C29F5B"/>
</g>
<path d="M28.9988 33.7023C26.6714 33.7023 24.4844 32.7949 22.8403 31.1508C21.1963 29.5068 20.2888 27.3198 20.2888 24.9923C20.2888 22.6649 21.1963 20.4779 22.8403 18.8338C24.4844 17.1898 26.6714 16.2823 28.9988 16.2823C31.3263 16.2823 33.5133 17.1898 35.1573 18.8338C36.8014 20.4779 37.7088 22.6649 37.7088 24.9923C37.7088 27.3198 36.8014 29.5068 35.1573 31.1508C33.5095 32.7987 31.3263 33.7023 28.9988 33.7023ZM28.9988 17.429C24.8261 17.429 21.4317 20.8234 21.4317 24.9961C21.4317 29.1689 24.8261 32.5633 28.9988 32.5633C33.1716 32.5633 36.566 29.1689 36.566 24.9961C36.566 20.8234 33.1716 17.429 28.9988 17.429Z" fill="white"/>
<path d="M27.704 28.413L24.6628 25.3717L25.4677 24.5667L27.704 26.8031L32.5298 21.9811L33.3348 22.786L27.704 28.413Z" fill="white"/>
<path d="M28.9991 38.8889C28.4561 38.8889 27.9132 38.756 27.4158 38.4902C27.3132 38.437 27.2145 38.3763 27.1196 38.3117C26.9412 38.194 26.7741 38.0536 26.6222 37.9017L25.1718 36.4513C24.7542 36.0336 24.196 35.802 23.6037 35.802H21.5534C19.7006 35.802 18.1932 34.2947 18.1932 32.4418V30.3915C18.1932 29.8068 17.9578 29.2335 17.5439 28.8234L16.0935 27.373C14.7836 26.0631 14.7836 23.9331 16.0935 22.6231L17.5439 21.1727C17.9578 20.7589 18.1932 20.1856 18.1932 19.6046V17.5543C18.1932 15.7015 19.7006 14.1941 21.5534 14.1941H23.6037C24.196 14.1941 24.7542 13.9625 25.1718 13.5449L26.6222 12.0945C27.2563 11.4604 28.0992 11.1111 28.9991 11.1111C29.8989 11.1111 30.738 11.4604 31.3759 12.0945L32.8263 13.5449C33.2439 13.9663 33.8021 14.1941 34.3944 14.1941H36.4447C38.2975 14.1941 39.8049 15.7015 39.8049 17.5543V19.6046C39.8049 20.197 40.0365 20.7551 40.4542 21.1727L41.9046 22.6231C43.2145 23.9331 43.2145 26.0631 41.9046 27.373L40.4542 28.8234C40.0365 29.2411 39.8049 29.7992 39.8049 30.3915V32.4418C39.8049 34.2947 38.2975 35.802 36.4447 35.802H34.3944C33.8021 35.802 33.2439 36.0336 32.8263 36.4513L31.3759 37.9017C31.224 38.0536 31.0569 38.194 30.8785 38.3117C30.7874 38.3763 30.6849 38.4332 30.5823 38.4902C30.085 38.756 29.542 38.8889 28.9991 38.8889ZM21.5496 15.3294C20.327 15.3294 19.3285 16.3242 19.3285 17.5505V19.6008C19.3285 20.4969 18.9792 21.3398 18.3451 21.9739L16.8947 23.4243C16.029 24.29 16.029 25.6986 16.8947 26.5643L18.3451 28.0147C18.9792 28.6488 19.3285 29.4917 19.3285 30.3915V32.4418C19.3285 33.6644 20.3232 34.663 21.5496 34.663H23.5999C24.496 34.663 25.3389 35.0123 25.9768 35.6464L27.4272 37.0968C27.5297 37.1993 27.6398 37.2904 27.7575 37.3701C27.8182 37.4119 27.8828 37.4499 27.9511 37.4878C28.608 37.8371 29.3901 37.8371 30.0432 37.4878C30.1115 37.4537 30.1761 37.4119 30.2368 37.3739C30.3545 37.2942 30.4684 37.2031 30.5672 37.1005L32.0175 35.6501C32.6516 35.0161 33.4945 34.6668 34.3944 34.6668H36.4447C37.6673 34.6668 38.6658 33.672 38.6658 32.4456V30.3953C38.6658 29.4992 39.0152 28.6525 39.6492 28.0185L41.0996 26.5681C41.9653 25.7024 41.9653 24.2938 41.0996 23.4281L39.6492 21.9777C39.0152 21.3436 38.6658 20.5007 38.6658 19.6008V17.5505C38.6658 16.328 37.6711 15.3294 36.4447 15.3294H34.3944C33.4983 15.3294 32.6516 14.9801 32.0175 14.346L30.5672 12.8956C29.7015 12.0299 28.2928 12.0299 27.4272 12.8956L25.9768 14.346C25.3427 14.9801 24.4998 15.3294 23.5999 15.3294H21.5496Z" fill="white"/>
<defs>
<filter id="filter0_d" x="0" y="0" width="58" height="58" filterUnits="userSpaceOnUse" color-interpolation-filters="sRGB">
<feFlood flood-opacity="0" result="BackgroundImageFix"/>
<feColorMatrix in="SourceAlpha" type="matrix" values="0 0 0 0 0 0 0 0 0 0 0 0 0 0 0 0 0 0 127 0"/>
<feOffset dy="4"/>
<feGaussianBlur stdDeviation="2"/>
<feColorMatrix type="matrix" values="0 0 0 0 0.760784 0 0 0 0 0.623529 0 0 0 0 0.356863 0 0 0 0.25 0"/>
<feBlend mode="normal" in2="BackgroundImageFix" result="effect1_dropShadow"/>
<feBlend mode="normal" in="SourceGraphic" in2="effect1_dropShadow" result="shape"/>
</filter>
</defs>
</svg>

<svg width="58" height="58" fill="none" xmlns="http://www.w3.org/2000/svg"><g filter="url(#filter0_d)"><circle cx="29" cy="25" r="25" fill="#C29F5B"/></g><path d="M28.999 33.702a8.653 8.653 0 01-6.159-2.551 8.653 8.653 0 01-2.551-6.159c0-2.327.907-4.514 2.551-6.158A8.654 8.654 0 0129 16.282c2.327 0 4.514.908 6.158 2.552a8.653 8.653 0 012.552 6.158 8.653 8.653 0 01-2.552 6.159A8.644 8.644 0 0129 33.702zm0-16.273c-4.173 0-7.567 3.394-7.567 7.567s3.394 7.567 7.567 7.567 7.567-3.394 7.567-7.567-3.394-7.567-7.567-7.567z" fill="#fff"/><path d="M27.704 28.413l-3.041-3.041.805-.805 2.236 2.236 4.826-4.822.805.805-5.631 5.627z" fill="#fff"/><path d="M29 38.889a3.355 3.355 0 01-2.378-.987l-1.45-1.45a2.206 2.206 0 00-1.568-.65h-2.05a3.364 3.364 0 01-3.36-3.36v-2.05c0-.585-.236-1.159-.65-1.569l-1.45-1.45a3.362 3.362 0 010-4.75l1.45-1.45c.414-.414.65-.987.65-1.568v-2.05a3.364 3.364 0 013.36-3.36h2.05c.592 0 1.15-.232 1.568-.65l1.45-1.45A3.337 3.337 0 0129 11.11c.9 0 1.739.35 2.377.983l1.45 1.45c.418.422.976.65 1.568.65h2.05a3.364 3.364 0 013.36 3.36v2.05c0 .593.232 1.151.65 1.569l1.45 1.45a3.362 3.362 0 010 4.75l-1.45 1.45c-.418.418-.65.976-.65 1.569v2.05a3.364 3.364 0 01-3.36 3.36h-2.05c-.592 0-1.15.232-1.568.65l-1.45 1.45a3.21 3.21 0 01-.498.41c-.09.064-.193.121-.296.178A3.354 3.354 0 0129 38.89zm-7.45-23.56a2.224 2.224 0 00-2.222 2.221v2.05c0 .897-.349 1.74-.983 2.374l-1.45 1.45a2.223 2.223 0 000 3.14l1.45 1.45a3.34 3.34 0 01.983 2.378v2.05c0 1.222.995 2.221 2.222 2.221h2.05c.896 0 1.739.35 2.377.983l1.45 1.45a2.253 2.253 0 00.524.392 2.22 2.22 0 002.092 0c.069-.034.133-.076.194-.114.118-.08.231-.17.33-.274l1.45-1.45a3.337 3.337 0 012.377-.983h2.05a2.224 2.224 0 002.222-2.221v-2.05c0-.897.35-1.744.983-2.378l1.45-1.45a2.223 2.223 0 000-3.14l-1.45-1.45a3.337 3.337 0 01-.983-2.377v-2.05a2.224 2.224 0 00-2.221-2.222h-2.05a3.346 3.346 0 01-2.378-.983l-1.45-1.45a2.223 2.223 0 00-3.14 0l-1.45 1.45a3.337 3.337 0 01-2.377.983h-2.05z" fill="#fff"/><defs><filter id="filter0_d" x="0" y="0" width="58" height="58" filterUnits="userSpaceOnUse" color-interpolation-filters="sRGB"><feFlood flood-opacity="0" result="BackgroundImageFix"/><feColorMatrix in="SourceAlpha" values="0 0 0 0 0 0 0 0 0 0 0 0 0 0 0 0 0 0 127 0"/><feOffset dy="4"/><feGaussianBlur stdDeviation="2"/><feColorMatrix values="0 0 0 0 0.760784 0 0 0 0 0.623529 0 0 0 0 0.356863 0 0 0 0.25 0"/><feBlend in2="BackgroundImageFix" result="effect1_dropShadow"/><feBlend in="SourceGraphic" in2="effect1_dropShadow" result="shape"/></filter></defs></svg>
